X:769
T:Mo Run Geal Dilers (my Faithful Fond One) 
C:Joe Buchanan's Scottish Tome - Page 529.2
I:529 2
Z:Carl Allison
C:AKA My Faithful fond One
R:Slow Air
L:1/4
M:3/4
K:D
D | "D"(F2 A) | "Bm"d3 | "Em"(e2 d) | "A"(c2 B) | "D"(A3 | F2) D | "F#m"(F2 A) | "Bm"d3 |
"Em"(e2 d) | "A"(c2 A )| "G"B3- | B2 c | "D"d2 A | "Bm"F3 | "F#m"(A2 F) | "Em"(E2 D) |
"A"E3 | "D"F2 A | "Ddim"(d2 B) | "D"A3 | "Bm"(F2 D) | "A7"E2 F | "D"D3 | D2 |]

